X:2054 
T:Nee shen my graih 
C:Traditional
O:Isle of Man
S:John Radcliffe, The Howe 
Z:Clague collection
B:Kiaull Vannin #54 
M:6/8 
Q:160 
K:D 
B/A/|G2F E2E|F2E E2E|F2F E2^D|E3 -E2E|G2A B2c|d2B edc|B2A d2c|B3-B2E| 
G2A B2c|d2B edc|B2A d2c|B3-B2 B/A/|G2F E2E|F2E E2E|F2F E2^D|E3-E2|| 

